X: 1
T: the Water is Wide
Z: Gerry Strong <gstrong@TERRA.NLNET.NF.CA>
M: 4/4
L: 1/4
K: G
D/ G/G/ A | B4- | B A/A/ GE | D4- | D>D GF | G4- | G G/A/ Bc |
A4- | A>A Bc | d4- | d c/B/ AG | B4- | B>A GE | D4- | D>E GF | G4 |]
